src/assets/filled/Calendar1.svg

<svg width="24" height="24" viewBox="0 0 24 24"  xmlns="http://www.w3.org/2000/svg">
<path d="M8.25 5.75C7.84 5.75 7.5 5.41 7.5 5V2C7.5 1.59 7.84 1.25 8.25 1.25C8.66 1.25 9 1.59 9 2V5C9 5.41 8.66 5.75 8.25 5.75Z" />
<path d="M15.75 5.75C15.34 5.75 15 5.41 15 5V2C15 1.59 15.34 1.25 15.75 1.25C16.16 1.25 16.5 1.59 16.5 2V5C16.5 5.41 16.16 5.75 15.75 5.75Z" />
<path d="M12.0001 14.09C12.5201 14.09 12.9001 13.78 12.9001 13.29C12.9001 12.79 12.5201 12.5 12.0001 12.5C11.4801 12.5 11.1001 12.79 11.1001 13.29C11.1001 13.78 11.4801 14.09 12.0001 14.09Z" />
<path d="M12.0001 16.9996C12.6297 16.9996 13.1401 16.5833 13.1401 16.0696C13.1401 15.556 12.6297 15.1396 12.0001 15.1396C11.3705 15.1396 10.8601 15.556 10.8601 16.0696C10.8601 16.5833 11.3705 16.9996 12.0001 16.9996Z" />
<path d="M19.57 4.5C18.91 4.01 17.96 4.48 17.96 5.31V5.41C17.96 6.58 17.12 7.66 15.95 7.78C14.6 7.92 13.46 6.86 13.46 5.54V4.5C13.46 3.95 13.01 3.5 12.46 3.5H11.54C10.99 3.5 10.54 3.95 10.54 4.5V5.54C10.54 6.33 10.13 7.03 9.51 7.42C9.42 7.48 9.32 7.53 9.22 7.58C9.13 7.63 9.03 7.67 8.92 7.7C8.8 7.74 8.67 7.77 8.53 7.78C8.37 7.8 8.21 7.8 8.05 7.78C7.91 7.77 7.78 7.74 7.66 7.7C7.56 7.67 7.46 7.63 7.36 7.58C7.26 7.53 7.16 7.48 7.07 7.42C6.44 6.98 6.04 6.22 6.04 5.41V5.31C6.04 4.54 5.22 4.08 4.57 4.41C4.56 4.42 4.55 4.42 4.54 4.43C4.5 4.45 4.47 4.47 4.43 4.5C4.4 4.53 4.36 4.55 4.33 4.58C4.05 4.8 3.8 5.05 3.59 5.32C3.48 5.44 3.39 5.57 3.31 5.7C3.3 5.71 3.29 5.72 3.28 5.74C3.19 5.87 3.11 6.02 3.04 6.16C3.02 6.18 3.01 6.19 3.01 6.21C2.95 6.33 2.89 6.45 2.85 6.58C2.82 6.63 2.81 6.67 2.79 6.72C2.73 6.87 2.69 7.02 2.65 7.17C2.61 7.31 2.58 7.46 2.56 7.61C2.54 7.72 2.53 7.83 2.52 7.95C2.51 8.09 2.5 8.23 2.5 8.37V17.13C2.5 19.82 4.68 22 7.37 22H16.63C19.32 22 21.5 19.82 21.5 17.13V8.37C21.5 6.78 20.74 5.39 19.57 4.5ZM12 18.25C10.45 18.25 9.5 17.48 9.5 16.24C9.5 15.56 9.85 14.97 10.46 14.62C10.02 14.31 9.73 13.85 9.73 13.22C9.73 11.92 10.77 11.25 12 11.25C13.23 11.25 14.26 11.92 14.26 13.22C14.26 13.85 13.98 14.31 13.53 14.62C14.15 14.97 14.5 15.56 14.5 16.24C14.5 17.48 13.54 18.25 12 18.25Z" />
</svg>

<?xml version="1.0" encoding="UTF-8"?>
<svg width="24" height="24" viewBox="0 0 24 24" xmlns="http://www.w3.org/2000/svg">
 <path d="M8.25 5.75C7.84 5.75 7.5 5.41 7.5 5V2C7.5 1.59 7.84 1.25 8.25 1.25C8.66 1.25 9 1.59 9 2V5C9 5.41 8.66 5.75 8.25 5.75Z"/>
 <path d="m15.75 5.75c-0.41 0-0.75-0.34-0.75-0.75v-3c0-0.41 0.34-0.75 0.75-0.75s0.75 0.34 0.75 0.75v3c0 0.41-0.34 0.75-0.75 0.75z"/>
 <path d="m12 14.09c0.52 0 0.9-0.31 0.9-0.8 0-0.5-0.38-0.79-0.9-0.79s-0.9 0.29-0.9 0.79c0 0.49 0.38 0.8 0.9 0.8z"/>
 <path d="m12 17c0.6296 0 1.14-0.4163 1.14-0.93 0-0.5136-0.5104-0.93-1.14-0.93s-1.14 0.4164-1.14 0.93c0 0.5137 0.5104 0.93 1.14 0.93z"/>
 <path d="m19.57 4.5c-0.66-0.49-1.61-0.02-1.61 0.81v0.1c0 1.17-0.84 2.25-2.01 2.37-1.35 0.14-2.49-0.92-2.49-2.24v-1.04c0-0.55-0.45-1-1-1h-0.92c-0.55 0-1 0.45-1 1v1.04c0 0.79-0.41 1.49-1.03 1.88-0.09 0.06-0.19 0.11-0.29 0.16-0.09 0.05-0.19 0.09-0.3 0.12-0.12 0.04-0.25 0.07-0.39 0.08-0.16 0.02-0.32 0.02-0.48 0-0.14-0.01-0.27-0.04-0.39-0.08-0.1-0.03-0.2-0.07-0.3-0.12s-0.2-0.1-0.29-0.16c-0.63-0.44-1.03-1.2-1.03-2.01v-0.1c0-0.77-0.82-1.23-1.47-0.9-0.01 0.01-0.02 0.01-0.03 0.02-0.04 0.02-0.07 0.04-0.11 0.07-0.03 0.03-0.07 0.05-0.1 0.08-0.28 0.22-0.53 0.47-0.74 0.74-0.11 0.12-0.2 0.25-0.28 0.38-0.01 0.01-0.02 0.02-0.03 0.04-0.09 0.13-0.17 0.28-0.24 0.42-0.02 0.02-0.03 0.03-0.03 0.05-0.06 0.12-0.12 0.24-0.16 0.37-0.03 0.05-0.04 0.09-0.06 0.14-0.06 0.15-0.1 0.3-0.14 0.45-0.04 0.14-0.07 0.29-0.09 0.44-0.02 0.11-0.03 0.22-0.04 0.34-0.01 0.14-0.02 0.28-0.02 0.42v8.76c0 2.69 2.18 4.87 4.87 4.87h9.26c2.69 0 4.87-2.18 4.87-4.87v-8.76c0-1.59-0.76-2.98-1.93-3.87zm-7.57 13.75c-1.55 0-2.5-0.77-2.5-2.01 0-0.68 0.35-1.27 0.96-1.62-0.44-0.31-0.73-0.77-0.73-1.4 0-1.3 1.04-1.97 2.27-1.97s2.26 0.67 2.26 1.97c0 0.63-0.28 1.09-0.73 1.4 0.62 0.35 0.97 0.94 0.97 1.62 0 1.24-0.96 2.01-2.5 2.01z"/>
</svg>
